X: 17
T: Rights Of Man, The
Z: UPipes & harp
S: https://thesession.org/tunes/83#setting49979
R: hornpipe
M: 4/4
L: 1/8
K: Emin
GA|:B2A2 G2F2|EFGA B2ef|gfed edBd|cBAG A2GA|
BcBA GAGF|EFGA B2ef|gfed Bgfg|e2 E2 E2 GA:|
BABG EFGA |BABG EGFE |DEFG AGFE|DEFG A2 GA|
BABG EFGA |BABG E2 EF|GFED B,GFG|E2 E2 E2 GA|
BABG EFGA |BABG EGFE |DEFG AGFE|DEFG A2 GF|
EDEF GFGA | BAGF E2 EF|GFED B,GFG|E2 E2 E2 GA ||

